icons/svg/google-wallet.svg

﻿<?xml version="1.0" encoding="utf-8"?>
<!DOCTYPE svg PUBLIC "-//W3C//DTD SVG 1.1//EN" "http://www.w3.org/Graphics/SVG/1.1/DTD/svg11.dtd">
<svg xmlns="http://www.w3.org/2000/svg" xmlns:xlink="http://www.w3.org/1999/xlink" version="1.1" baseProfile="full" width="24" height="24" viewBox="0 0 24.00 24.00" enable-background="new 0 0 24.00 24.00" xml:space="preserve">
	<path fill="#000000" fill-opacity="1" stroke-linejoin="round" d="M 9.89419,11.0795C 9.76039,9.90827 9.39457,8.7726 8.77434,7.77139C 8.47575,7.29484 8.4573,6.70032 8.62735,6.24684C 8.70974,6.0201 8.83102,5.80391 9.03139,5.59299C 9.23506,5.37679 9.4618,5.26079 9.67009,5.1784C 9.87639,5.09337 10.0227,5.05976 10.3114,5.05976C 10.6561,5.05976 10.9962,5.16785 11.279,5.35373L 11.7193,5.76304L 11.83,5.91991C 12.94,7.75557 13.5273,9.86411 13.5273,12.0194L 13.5016,12.7893C 13.3803,14.679 12.8036,16.512 11.8228,18.1315C 11.4959,18.67 10.9218,18.9916 10.293,18.9916L 9.77555,18.9119L 9.36623,18.732C 8.86398,18.4281 8.56803,17.9127 8.51662,17.3695C 8.48564,17.0479 8.54233,16.7183 8.69195,16.4145L 8.76643,16.2754C 9.54419,14.9987 9.95351,13.5255 9.95351,12.0194L 9.89419,11.0795 Z M 20.3782,7.88476C 20.6847,9.22081 20.8442,10.6241 20.8442,12.0194C 20.8442,13.4333 20.6847,14.8154 20.3782,16.1568L 20.1053,17.2127C 19.7758,18.4024 19.3974,19.3238 19.0237,20.0265C 18.6968,20.6217 18.0614,21 17.3785,21C 17.0984,21 16.8301,20.9407 16.5757,20.8201C 16.0221,20.5544 15.674,20.0706 15.5534,19.54L 15.5046,19.105C 15.5046,18.701 15.6694,18.353 15.6819,18.322C 16.6166,16.3446 17.0905,14.2262 17.0905,12.0194C 17.0905,9.81534 16.6192,7.69164 15.6668,5.68329C 15.2239,4.75129 15.62,3.62617 16.5546,3.18324C 16.8097,3.06196 17.0799,3 17.3581,3C 18.0792,3 18.7462,3.41986 19.0547,4.07108C 19.6341,5.2865 20.0796,6.56849 20.3782,7.88476 Z M 16.1225,9.49265C 16.2649,10.3215 16.3358,11.1644 16.3358,12.0194C 16.3358,14.0039 15.9526,15.9169 15.1957,17.7202C 15.1097,16.2104 14.7513,14.7629 14.157,13.4394L 14.2243,12.7295L 14.25,11.9597C 14.25,9.88446 13.7056,7.85261 12.6743,6.06595C 14.0017,7.03471 15.1803,8.20589 16.1225,9.49265 Z M 3.97724,10.4771C 3.15333,10.0342 2.84223,9.00725 3.28252,8.18071C 3.5811,7.62704 4.15256,7.2843 4.78334,7.2843C 5.05886,7.2843 5.33437,7.35417 5.58154,7.48533C 6.86688,8.17347 8.03439,9.09893 8.97306,10.161L 9.12224,11.0538L 9.18156,11.9937C 9.18156,13.4306 8.80901,14.8375 8.09941,16.0724C 7.6035,13.6599 6.11786,11.6216 3.97724,10.4771 Z "/>
</svg>

<svg xmlns="http://www.w3.org/2000/svg" version="1.1" baseProfile="full" width="24" height="24" viewBox="0 0 24.00 24.00" xml:space="preserve"><path fill="#000" fill-opacity="1" stroke-linejoin="round" d="M9.894 11.08c-.134-1.172-.5-2.307-1.12-3.31-.298-.475-.317-1.07-.147-1.523.083-.227.204-.443.404-.654.205-.216.432-.332.64-.415.206-.085.353-.118.64-.118.346 0 .686.108.97.294l.44.41.11.156c1.11 1.836 1.697 3.944 1.697 6.1l-.025.77c-.122 1.89-.698 3.722-1.68 5.341-.326.54-.9.862-1.53.862l-.516-.08-.41-.18c-.502-.304-.798-.82-.85-1.363-.03-.322.026-.652.176-.956l.074-.14c.778-1.275 1.188-2.75 1.188-4.255l-.06-.94zm10.484-3.195c.307 1.336.466 2.74.466 4.134 0 1.413-.16 2.795-.466 4.137l-.273 1.056c-.33 1.19-.708 2.11-1.08 2.813-.328.596-.964.974-1.646.974-.282 0-.55-.06-.804-.18-.554-.266-.902-.75-1.023-1.28l-.048-.435c0-.404.164-.752.177-.783.935-1.977 1.408-4.096 1.408-6.303 0-2.205-.47-4.328-1.423-6.337-.443-.932-.047-2.057.888-2.5.255-.12.525-.183.803-.183.72 0 1.388.42 1.697 1.07.58 1.216 1.025 2.498 1.323 3.815zm-4.256 1.608c.143.83.214 1.67.214 2.526 0 1.984-.383 3.897-1.14 5.7-.086-1.51-.445-2.957-1.04-4.28l.068-.71.026-.77c0-2.076-.544-4.107-1.576-5.894 1.328.97 2.506 2.14 3.448 3.427zm-12.145.984c-.824-.443-1.135-1.47-.694-2.296.298-.553.87-.896 1.5-.896.276 0 .55.07.8.2 1.284.69 2.45 1.615 3.39 2.677l.15.894.06.94c0 1.437-.374 2.844-1.084 4.078-.496-2.412-1.982-4.45-4.123-5.595z"/></svg>
